docs/img/roll-icon.svg

<svg width="15" height="14" viewBox="0 0 15 14" fill="none" xmlns="http://www.w3.org/2000/svg">
<path d="M1.42969 6.58124C1.33002 6.47387 1.27909 6.33756 1.2868 6.19883C1.2945 6.0601 1.3603 5.92886 1.47138 5.83064C1.58247 5.73242 1.7309 5.67425 1.88781 5.66743C2.04471 5.66062 2.19888 5.70565 2.32031 5.79377L6.875 9.82781V0.661433C6.875 0.514872 6.94085 0.374315 7.05806 0.270681C7.17527 0.167047 7.33424 0.108826 7.5 0.108826C7.66576 0.108826 7.82473 0.167047 7.94194 0.270681C8.05915 0.374315 8.125 0.514872 8.125 0.661433V9.82781L12.6797 5.79377C12.8011 5.70565 12.9553 5.66062 13.1122 5.66743C13.2691 5.67425 13.4175 5.73242 13.5286 5.83064C13.6397 5.92886 13.7055 6.0601 13.7132 6.19883C13.7209 6.33756 13.67 6.47387 13.5703 6.58124L7.94531 11.5547C7.82585 11.6568 7.66618 11.7139 7.5 11.7139C7.33382 11.7139 7.17415 11.6568 7.05469 11.5547L1.42969 6.58124ZM14.375 12.8188H0.625C0.45924 12.8188 0.300269 12.877 0.183058 12.9807C0.0658481 13.0843 0 13.2248 0 13.3714C0 13.518 0.0658481 13.6585 0.183058 13.7622C0.300269 13.8658 0.45924 13.924 0.625 13.924H14.375C14.5408 13.924 14.6997 13.8658 14.8169 13.7622C14.9342 13.6585 15 13.518 15 13.3714C15 13.2248 14.9342 13.0843 14.8169 12.9807C14.6997 12.877 14.5408 12.8188 14.375 12.8188Z" fill="#454545"/>
</svg>

<svg width="15" height="14" fill="none" xmlns="http://www.w3.org/2000/svg"><path d="M1.43 6.581a.519.519 0 01-.143-.382.532.532 0 01.184-.368.674.674 0 01.417-.164.688.688 0 01.432.127l4.555 4.034V.66c0-.146.066-.287.183-.39A.669.669 0 017.5.109c.166 0 .325.058.442.162a.522.522 0 01.183.39v9.167l4.555-4.034a.688.688 0 01.432-.127.674.674 0 01.417.164c.11.098.177.23.184.368a.519.519 0 01-.143.382l-5.625 4.974a.687.687 0 01-.445.159.687.687 0 01-.445-.16L1.43 6.582zm12.945 6.238H.625a.669.669 0 00-.442.162.522.522 0 00-.183.39c0 .147.066.287.183.391a.669.669 0 00.442.162h13.75a.669.669 0 00.442-.162.522.522 0 00.183-.39.522.522 0 00-.183-.391.668.668 0 00-.442-.162z" fill="#454545"/></svg>
